assets/Icons/social/instagram_icon.svg

<svg width="50" height="50" viewBox="0 0 50 50" fill="none" xmlns="http://www.w3.org/2000/svg">
<path d="M30.5136 13.7061H19.2959C16.1982 13.7061 13.687 16.2172 13.687 19.3149V30.5326C13.687 33.6303 16.1982 36.1415 19.2959 36.1415H30.5136C33.6113 36.1415 36.1225 33.6303 36.1225 30.5326V19.3149C36.1225 16.2172 33.6113 13.7061 30.5136 13.7061Z" stroke="black" stroke-width="2" stroke-linecap="round" stroke-linejoin="round"/>
<path d="M29.392 24.2166C29.5304 25.1502 29.3709 26.1037 28.9362 26.9414C28.5016 27.7791 27.8138 28.4585 26.9708 28.8828C26.1277 29.3071 25.1724 29.4548 24.2405 29.3049C23.3087 29.1549 22.4479 28.715 21.7806 28.0476C21.1132 27.3803 20.6732 26.5195 20.5233 25.5877C20.3734 24.6558 20.5211 23.7005 20.9454 22.8574C21.3697 22.0144 22.049 21.3266 22.8868 20.8919C23.7245 20.4573 24.678 20.2978 25.6116 20.4362C26.5639 20.5774 27.4455 21.0212 28.1263 21.7019C28.807 22.3827 29.2507 23.2643 29.392 24.2166Z" stroke="black" stroke-width="2" stroke-linecap="round" stroke-linejoin="round"/>
<path d="M31.0747 18.7539H31.0861" stroke="black" stroke-width="2" stroke-linecap="round" stroke-linejoin="round"/>
<circle cx="25" cy="25" r="24" stroke="black" stroke-width="2"/>
</svg>

<?xml version="1.0" encoding="UTF-8"?>
<svg id="Layer_1" data-name="Layer 1" xmlns="http://www.w3.org/2000/svg" viewBox="0 0 50 50">
  <defs>
    <style>
      .cls-1 {
        stroke-linecap: round;
        stroke-linejoin: round;
      }

      .cls-1, .cls-2 {
        fill: none;
        stroke: #fff;
        stroke-width: 2px;
      }
    </style>
  </defs>
  <path class="cls-1" d="m30.514,13.706h-11.218c-3.098,0-5.609,2.511-5.609,5.609v11.218c0,3.098,2.511,5.609,5.609,5.609h11.218c3.098,0,5.609-2.511,5.609-5.609v-11.218c0-3.098-2.511-5.609-5.609-5.609Z"/>
  <path class="cls-1" d="m29.392,24.217c.138.934-.021,1.887-.456,2.725-.435.838-1.122,1.517-1.965,1.941-.843.424-1.798.572-2.73.422-.932-.15-1.793-.59-2.46-1.257-.667-.667-1.107-1.528-1.257-2.46-.15-.932-.002-1.887.422-2.73.424-.843,1.104-1.531,1.941-1.966.838-.435,1.791-.594,2.725-.456.952.141,1.834.585,2.515,1.266.681.681,1.124,1.562,1.266,2.515Z"/>
  <path class="cls-1" d="m31.075,18.754h.011"/>
  <circle class="cls-2" cx="25" cy="25" r="24"/>
</svg>
